Newaita-dark/mimetypes/32/audio-x-playlist.svg

<svg height="32pt" viewBox="0 0 32 32" width="32pt" xmlns="http://www.w3.org/2000/svg" xmlns:xlink="http://www.w3.org/1999/xlink"><linearGradient id="a"><stop offset="0" stop-opacity=".27451"/><stop offset="1" stop-opacity="0"/></linearGradient><linearGradient id="b" gradientUnits="userSpaceOnUse" x1="16.538045" x2="16.538045" xlink:href="#a" y1="28.033934" y2="29.35697787502"/><linearGradient id="c"><stop offset="0" stop-opacity=".313725"/><stop offset=".222222" stop-opacity=".27451"/><stop offset="1" stop-opacity="0"/></linearGradient><radialGradient id="d" cx="450.90894" cy="189.57936" gradientTransform="matrix(.00000017 -.0781325 -.140638 -.0000001 49.484568 63.595333)" gradientUnits="userSpaceOnUse" r="21.166656" xlink:href="#c"/><radialGradient id="e" cx="450.90894" cy="189.57936" gradientTransform="matrix(-.00000017 .0781325 .140638 .0000001 -18.393052 -7.52748)" gradientUnits="userSpaceOnUse" r="21.166656" xlink:href="#c"/><radialGradient id="f" cx="450.90894" cy="189.57936" gradientTransform="matrix(-.00000017 -.0781325 .140638 -.0000001 -18.393052 63.595333)" gradientUnits="userSpaceOnUse" r="21.166656" xlink:href="#c"/><radialGradient id="g" cx="450.90894" cy="189.57936" gradientTransform="matrix(.00000017 .0781325 -.140638 .0000001 49.484566 -7.527481)" gradientUnits="userSpaceOnUse" r="21.166656" xlink:href="#c"/><linearGradient id="h" gradientUnits="userSpaceOnUse" x1="15.54572" x2="15.54572" y1="28.0338647916" y2="2.89610346856"><stop offset="0" stop-color="#b0bec5"/><stop offset="1" stop-color="#cfd8dc"/></linearGradient><linearGradient id="i" gradientTransform="matrix(.0298942 0 0 .109385 15.042423 -16.52629)" gradientUnits="userSpaceOnUse" x1="249.18942" x2="249.18942" xlink:href="#a" y1="233.5" y2="254.66669"/><linearGradient id="j"><stop offset="0" stop-color="#78909c"/><stop offset="1" stop-color="#90a4ae"/></linearGradient><linearGradient id="k" gradientUnits="userSpaceOnUse" x1="21.16869824996" x2="21.16869824996" xlink:href="#j" y1="28.033934" y2="2.89610412498"/><linearGradient id="l" gradientUnits="userSpaceOnUse" x1="254" x2="254" xlink:href="#j" y1="233.5" y2="-168.66667"/><linearGradient id="m" gradientUnits="userSpaceOnUse" x1="305.56444047967" x2="305.56444047967" xlink:href="#j" y1="165.42758280167" y2="-1.8942624185"/><path d="m7.9375 28.035156h15.214844v1.320313h-15.214844zm0 0" fill="url(#b)"/><path d="m23.152344 28.035156h2.648437v-1.324218h-2.648437zm0 0" fill="url(#d)"/><path d="m7.9375 28.035156h-2.644531v1.320313h2.644531zm0 0" fill="url(#e)"/><path d="m7.9375 28.035156h-2.644531v-1.324218h2.644531zm0 0" fill="url(#f)"/><path d="m23.152344 28.035156h2.648437v1.320313h-2.648437zm0 0" fill="url(#g)"/><path d="m18.542969 2.894531h-11.929688c-.730469 0-1.320312.589844-1.320312 1.324219v22.492188c0 .734374.589843 1.324218 1.320312 1.324218h17.863281c.734376 0 1.324219-.589844 1.324219-1.324218v-16.558594zm0 0" fill="url(#h)"/><path d="m5.292969 26.195312v.515626c0 .734374.589843 1.324218 1.320312 1.324218h17.863281c.734376 0 1.324219-.589844 1.324219-1.324218v-.515626c0 .734376-.589843 1.324219-1.324219 1.324219h-17.863281c-.730469 0-1.320312-.589843-1.320312-1.324219zm0 0" fill-opacity=".235294"/><path d="m18.523438 9.015625h6.285156l.992187.992187v1.324219h-7.277343zm0 0" fill="url(#i)"/><path d="m6.613281 2.894531c-.730469 0-1.320312.589844-1.320312 1.324219v.496094c0-.734375.589843-1.324219 1.320312-1.324219h11.929688l7.257812 7.257813v-.496094l-7.257812-7.257813zm0 0" fill="#fff" fill-opacity=".392157"/><path d="m25.800781 10.152344-7.257812-7.257813v5.9375c0 .730469.589843 1.320313 1.320312 1.320313zm0 0" fill="url(#k)"/><path d="m18.542969 8.519531v.3125c0 .730469.589843 1.320313 1.320312 1.320313h5.9375l-.3125-.308594h-5.625c-.730469 0-1.320312-.589844-1.320312-1.324219zm0 0" fill-opacity=".235294"/><path d="m18.542969 2.894531v.496094l6.761719 6.761719h.496093zm0 0" fill="#fff" fill-opacity=".392157"/><path d="m18.539062 2.800781c-.050781.003907-.089843.042969-.089843.09375v5.9375c0 .78125.632812 1.414063 1.414062 1.414063h5.9375c.035157 0 .070313-.023438.085938-.058594s.003906-.074219-.019531-.101562l-7.257813-7.257813c-.019531-.015625-.042969-.027344-.070313-.027344zm.097657.320313 6.9375 6.9375h-5.710938c-.679687 0-1.226562-.546875-1.226562-1.226563zm0 0" fill="#212121"/><path d="m6.613281 2.800781c-.78125 0-1.414062.636719-1.414062 1.417969v22.492188c0 .785156.632812 1.417968 1.414062 1.417968h17.863281c.78125 0 1.417969-.632812 1.417969-1.417968v-16.558594c0-.023438-.011719-.046875-.027343-.066406l-7.257813-7.257813c-.019531-.015625-.042969-.027344-.066406-.027344zm0 .1875h11.890625l7.203125 7.203125v16.519532c0 .683593-.546875 1.230468-1.230469 1.230468h-17.863281c-.679687 0-1.226562-.546875-1.226562-1.230468v-22.492188c0-.683594.546875-1.230469 1.226562-1.230469zm0 0" fill="#212121"/><g stroke="#212121" stroke-linecap="round" stroke-linejoin="round" stroke-width="3"><path d="m164.046852-31.080069h169.358827c2.874725 0 5.249499 2.374774 5.249499 5.311993v10.561492c0 2.937219-2.374774 5.311992-5.249499 5.311992h-169.358827c-2.93722 0-5.311993-2.374773-5.311993-5.311992v-10.561492c0-2.937219 2.374773-5.311993 5.311993-5.311993zm0 0" fill="url(#l)" transform="matrix(.062506 0 0 .062506 -.000001 13.438784)"/><path d="m164.046852 11.228391h169.358827c2.874725 0 5.249499 2.374773 5.249499 5.311993v10.561491c0 2.93722-2.374774 5.311993-5.249499 5.311993h-169.358827c-2.93722 0-5.311993-2.374773-5.311993-5.311993v-10.561491c0-2.93722 2.374773-5.311993 5.311993-5.311993zm0 0" fill="url(#l)" transform="matrix(.062506 0 0 .062506 -.000001 13.438784)"/><path d="m164.046852 53.599345h95.240905c2.937219 0 5.311993 2.374773 5.311993 5.249499v10.623985c0 2.93722-2.374774 5.249499-5.311993 5.249499h-95.240905c-2.93722 0-5.311993-2.312279-5.311993-5.249499v-10.623985c0-2.874726 2.374773-5.249499 5.311993-5.249499zm0 0" fill="url(#l)" transform="matrix(.062506 0 0 .062506 -.000001 13.438784)"/><path d="m164.046852 95.907805h95.240905c2.937219 0 5.311993 2.374773 5.311993 5.311992v10.561492c0 2.937219-2.374774 5.311993-5.311993 5.311993h-95.240905c-2.93722 0-5.311993-2.374774-5.311993-5.311993v-10.561492c0-2.937219 2.374773-5.311992 5.311993-5.311992zm0 0" fill="url(#l)" transform="matrix(.062506 0 0 .062506 -.000001 13.438784)"/><path d="m285.722715 55.349183c-2.374773 0-4.374582 1.999809-4.374582 4.374582v52.869951c0 3.312184 3.562159 5.436981 6.499379 3.87463l48.432875-26.434975c3.062207-1.687339 3.062207-6.061921 0-7.74926l-48.432875-26.372482c-.62494-.374964-1.374869-.562446-2.124797-.562446zm0 0" fill="url(#m)" fill-rule="evenodd" transform="matrix(.062506 0 0 .062506 0 13.438783)"/></g></svg>

<?xml version="1.0" encoding="UTF-8"?>
<svg xmlns="http://www.w3.org/2000/svg" xmlns:xlink="http://www.w3.org/1999/xlink" width="32pt" height="32pt" viewBox="0 0 32 32" version="1.1">
<defs>
<linearGradient id="linear0" gradientUnits="userSpaceOnUse" x1="254" y1="233.5" x2="254" y2="254.66667" gradientTransform="matrix(0.062506,0,0,0.062506,0.661521,13.438783)">
<stop offset="0" style="stop-color:rgb(0%,0%,0%);stop-opacity:0.27451;"/>
<stop offset="1" style="stop-color:rgb(0%,0%,0%);stop-opacity:0;"/>
</linearGradient>
<radialGradient id="radial0" gradientUnits="userSpaceOnUse" cx="450.90894" cy="189.57936" fx="450.90894" fy="189.57936" r="21.166656" gradientTransform="matrix(0.00000017417,-0.0781325,-0.140638,-0.000000101539,49.484568,63.595333)">
<stop offset="0" style="stop-color:rgb(0%,0%,0%);stop-opacity:0.313725;"/>
<stop offset="0.222222" style="stop-color:rgb(0%,0%,0%);stop-opacity:0.27451;"/>
<stop offset="1" style="stop-color:rgb(0%,0%,0%);stop-opacity:0;"/>
</radialGradient>
<radialGradient id="radial1" gradientUnits="userSpaceOnUse" cx="450.90894" cy="189.57936" fx="450.90894" fy="189.57936" r="21.166656" gradientTransform="matrix(-0.00000017417,0.0781325,0.140638,0.000000101539,-18.393052,-7.52748)">
<stop offset="0" style="stop-color:rgb(0%,0%,0%);stop-opacity:0.313725;"/>
<stop offset="0.222222" style="stop-color:rgb(0%,0%,0%);stop-opacity:0.27451;"/>
<stop offset="1" style="stop-color:rgb(0%,0%,0%);stop-opacity:0;"/>
</radialGradient>
<radialGradient id="radial2" gradientUnits="userSpaceOnUse" cx="450.90894" cy="189.57936" fx="450.90894" fy="189.57936" r="21.166656" gradientTransform="matrix(-0.00000017417,-0.0781325,0.140638,-0.000000101539,-18.393052,63.595333)">
<stop offset="0" style="stop-color:rgb(0%,0%,0%);stop-opacity:0.313725;"/>
<stop offset="0.222222" style="stop-color:rgb(0%,0%,0%);stop-opacity:0.27451;"/>
<stop offset="1" style="stop-color:rgb(0%,0%,0%);stop-opacity:0;"/>
</radialGradient>
<radialGradient id="radial3" gradientUnits="userSpaceOnUse" cx="450.90894" cy="189.57936" fx="450.90894" fy="189.57936" r="21.166656" gradientTransform="matrix(0.00000017417,0.0781325,-0.140638,0.000000101539,49.484566,-7.527481)">
<stop offset="0" style="stop-color:rgb(0%,0%,0%);stop-opacity:0.313725;"/>
<stop offset="0.222222" style="stop-color:rgb(0%,0%,0%);stop-opacity:0.27451;"/>
<stop offset="1" style="stop-color:rgb(0%,0%,0%);stop-opacity:0;"/>
</radialGradient>
<linearGradient id="linear1" gradientUnits="userSpaceOnUse" x1="940" y1="1695.1182" x2="940" y2="175.11812" gradientTransform="matrix(0.016538,0,0,0.016538,0,0)">
<stop offset="0" style="stop-color:rgb(69.019608%,74.509804%,77.254902%);stop-opacity:1;"/>
<stop offset="1" style="stop-color:rgb(81.176471%,84.705882%,86.27451%);stop-opacity:1;"/>
</linearGradient>
<linearGradient id="linear2" gradientUnits="userSpaceOnUse" x1="249.18942" y1="233.5" x2="249.18942" y2="254.66669" gradientTransform="matrix(0.0298942,0,0,0.109385,15.042423,-16.52629)">
<stop offset="0" style="stop-color:rgb(0%,0%,0%);stop-opacity:0.27451;"/>
<stop offset="1" style="stop-color:rgb(0%,0%,0%);stop-opacity:0;"/>
</linearGradient>
<linearGradient id="linear3" gradientUnits="userSpaceOnUse" x1="338.66666" y1="233.5" x2="338.66666" y2="-168.66667" gradientTransform="matrix(0.062506,0,0,0.062506,0,13.438783)">
<stop offset="0" style="stop-color:rgb(47.058824%,56.470588%,61.176471%);stop-opacity:1;"/>
<stop offset="1" style="stop-color:rgb(56.470588%,64.313725%,68.235294%);stop-opacity:1;"/>
</linearGradient>
<linearGradient id="linear4" gradientUnits="userSpaceOnUse" x1="254" y1="233.5" x2="254" y2="-168.66667" >
<stop offset="0" style="stop-color:rgb(47.058824%,56.470588%,61.176471%);stop-opacity:1;"/>
<stop offset="1" style="stop-color:rgb(56.470588%,64.313725%,68.235294%);stop-opacity:1;"/>
</linearGradient>
<linearGradient id="linear5" gradientUnits="userSpaceOnUse" x1="254" y1="233.5" x2="254" y2="-168.66667" >
<stop offset="0" style="stop-color:rgb(47.058824%,56.470588%,61.176471%);stop-opacity:1;"/>
<stop offset="1" style="stop-color:rgb(56.470588%,64.313725%,68.235294%);stop-opacity:1;"/>
</linearGradient>
<linearGradient id="linear6" gradientUnits="userSpaceOnUse" x1="254" y1="233.5" x2="254" y2="-168.66667" >
<stop offset="0" style="stop-color:rgb(47.058824%,56.470588%,61.176471%);stop-opacity:1;"/>
<stop offset="1" style="stop-color:rgb(56.470588%,64.313725%,68.235294%);stop-opacity:1;"/>
</linearGradient>
<linearGradient id="linear7" gradientUnits="userSpaceOnUse" x1="254" y1="233.5" x2="254" y2="-168.66667" >
<stop offset="0" style="stop-color:rgb(47.058824%,56.470588%,61.176471%);stop-opacity:1;"/>
<stop offset="1" style="stop-color:rgb(56.470588%,64.313725%,68.235294%);stop-opacity:1;"/>
</linearGradient>
<linearGradient id="linear8" gradientUnits="userSpaceOnUse" x1="248.70117" y1="222.92317" x2="248.70117" y2="-179.2435" gradientTransform="matrix(0.416051,0,0,0.416051,202.09207,72.680175)">
<stop offset="0" style="stop-color:rgb(47.058824%,56.470588%,61.176471%);stop-opacity:1;"/>
<stop offset="1" style="stop-color:rgb(56.470588%,64.313725%,68.235294%);stop-opacity:1;"/>
</linearGradient>
</defs>
<g id="surface1">
<path style=" stroke:none;fill-rule:nonzero;fill:url(#linear0);" d="M 7.9375 28.035156 L 23.152344 28.035156 L 23.152344 29.355469 L 7.9375 29.355469 Z M 7.9375 28.035156 "/>
<path style=" stroke:none;fill-rule:nonzero;fill:url(#radial0);" d="M 23.152344 28.035156 L 25.800781 28.035156 L 25.800781 26.710938 L 23.152344 26.710938 Z M 23.152344 28.035156 "/>
<path style=" stroke:none;fill-rule:nonzero;fill:url(#radial1);" d="M 7.9375 28.035156 L 5.292969 28.035156 L 5.292969 29.355469 L 7.9375 29.355469 Z M 7.9375 28.035156 "/>
<path style=" stroke:none;fill-rule:nonzero;fill:url(#radial2);" d="M 7.9375 28.035156 L 5.292969 28.035156 L 5.292969 26.710938 L 7.9375 26.710938 Z M 7.9375 28.035156 "/>
<path style=" stroke:none;fill-rule:nonzero;fill:url(#radial3);" d="M 23.152344 28.035156 L 25.800781 28.035156 L 25.800781 29.355469 L 23.152344 29.355469 Z M 23.152344 28.035156 "/>
<path style=" stroke:none;fill-rule:nonzero;fill:url(#linear1);" d="M 18.542969 2.894531 L 6.613281 2.894531 C 5.882812 2.894531 5.292969 3.484375 5.292969 4.21875 L 5.292969 26.710938 C 5.292969 27.445312 5.882812 28.035156 6.613281 28.035156 L 24.476562 28.035156 C 25.210938 28.035156 25.800781 27.445312 25.800781 26.710938 L 25.800781 10.152344 Z M 18.542969 2.894531 "/>
<path style=" stroke:none;fill-rule:nonzero;fill:rgb(0%,0%,0%);fill-opacity:0.235294;" d="M 5.292969 26.195312 L 5.292969 26.710938 C 5.292969 27.445312 5.882812 28.035156 6.613281 28.035156 L 24.476562 28.035156 C 25.210938 28.035156 25.800781 27.445312 25.800781 26.710938 L 25.800781 26.195312 C 25.800781 26.929688 25.210938 27.519531 24.476562 27.519531 L 6.613281 27.519531 C 5.882812 27.519531 5.292969 26.929688 5.292969 26.195312 Z M 5.292969 26.195312 "/>
<path style=" stroke:none;fill-rule:nonzero;fill:url(#linear2);" d="M 18.523438 9.015625 L 24.808594 9.015625 L 25.800781 10.007812 L 25.800781 11.332031 L 18.523438 11.332031 Z M 18.523438 9.015625 "/>
<path style=" stroke:none;fill-rule:nonzero;fill:rgb(100%,100%,100%);fill-opacity:0.392157;" d="M 6.613281 2.894531 C 5.882812 2.894531 5.292969 3.484375 5.292969 4.21875 L 5.292969 4.714844 C 5.292969 3.980469 5.882812 3.390625 6.613281 3.390625 L 18.542969 3.390625 L 25.800781 10.648438 L 25.800781 10.152344 L 18.542969 2.894531 Z M 6.613281 2.894531 "/>
<path style=" stroke:none;fill-rule:nonzero;fill:url(#linear3);" d="M 25.800781 10.152344 L 18.542969 2.894531 L 18.542969 8.832031 C 18.542969 9.5625 19.132812 10.152344 19.863281 10.152344 Z M 25.800781 10.152344 "/>
<path style=" stroke:none;fill-rule:nonzero;fill:rgb(0%,0%,0%);fill-opacity:0.235294;" d="M 18.542969 8.519531 L 18.542969 8.832031 C 18.542969 9.5625 19.132812 10.152344 19.863281 10.152344 L 25.800781 10.152344 L 25.488281 9.84375 L 19.863281 9.84375 C 19.132812 9.84375 18.542969 9.253906 18.542969 8.519531 Z M 18.542969 8.519531 "/>
<path style=" stroke:none;fill-rule:nonzero;fill:rgb(100%,100%,100%);fill-opacity:0.392157;" d="M 18.542969 2.894531 L 18.542969 3.390625 L 25.304688 10.152344 L 25.800781 10.152344 Z M 18.542969 2.894531 "/>
<path style=" stroke:none;fill-rule:nonzero;fill:rgb(12.941176%,12.941176%,12.941176%);fill-opacity:1;" d="M 18.539062 2.800781 C 18.488281 2.804688 18.449219 2.84375 18.449219 2.894531 L 18.449219 8.832031 C 18.449219 9.613281 19.082031 10.246094 19.863281 10.246094 L 25.800781 10.246094 C 25.835938 10.246094 25.871094 10.222656 25.886719 10.1875 C 25.902344 10.152344 25.890625 10.113281 25.867188 10.085938 L 18.609375 2.828125 C 18.589844 2.8125 18.566406 2.800781 18.539062 2.800781 Z M 18.636719 3.121094 L 25.574219 10.058594 L 19.863281 10.058594 C 19.183594 10.058594 18.636719 9.511719 18.636719 8.832031 Z M 18.636719 3.121094 "/>
<path style=" stroke:none;fill-rule:nonzero;fill:rgb(12.941176%,12.941176%,12.941176%);fill-opacity:1;" d="M 6.613281 2.800781 C 5.832031 2.800781 5.199219 3.4375 5.199219 4.21875 L 5.199219 26.710938 C 5.199219 27.496094 5.832031 28.128906 6.613281 28.128906 L 24.476562 28.128906 C 25.257812 28.128906 25.894531 27.496094 25.894531 26.710938 L 25.894531 10.152344 C 25.894531 10.128906 25.882812 10.105469 25.867188 10.085938 L 18.609375 2.828125 C 18.589844 2.8125 18.566406 2.800781 18.542969 2.800781 Z M 6.613281 2.988281 L 18.503906 2.988281 L 25.707031 10.191406 L 25.707031 26.710938 C 25.707031 27.394531 25.160156 27.941406 24.476562 27.941406 L 6.613281 27.941406 C 5.933594 27.941406 5.386719 27.394531 5.386719 26.710938 L 5.386719 4.21875 C 5.386719 3.535156 5.933594 2.988281 6.613281 2.988281 Z M 6.613281 2.988281 "/>
<path style="fill-rule:nonzero;fill:url(#linear4);stroke-width:3;stroke-linecap:round;stroke-linejoin:round;stroke:rgb(12.941176%,12.941176%,12.941176%);stroke-opacity:1;stroke-miterlimit:4;" d="M 164.046852 -31.080069 L 333.405679 -31.080069 C 336.280404 -31.080069 338.655178 -28.705295 338.655178 -25.768076 L 338.655178 -15.206584 C 338.655178 -12.269365 336.280404 -9.894592 333.405679 -9.894592 L 164.046852 -9.894592 C 161.109632 -9.894592 158.734859 -12.269365 158.734859 -15.206584 L 158.734859 -25.768076 C 158.734859 -28.705295 161.109632 -31.080069 164.046852 -31.080069 Z M 164.046852 -31.080069 " transform="matrix(0.062506,0,0,0.062506,-0.00000109958,13.438784)"/>
<path style="fill-rule:nonzero;fill:url(#linear5);stroke-width:3;stroke-linecap:round;stroke-linejoin:round;stroke:rgb(12.941176%,12.941176%,12.941176%);stroke-opacity:1;stroke-miterlimit:4;" d="M 164.046852 11.228391 L 333.405679 11.228391 C 336.280404 11.228391 338.655178 13.603164 338.655178 16.540384 L 338.655178 27.101875 C 338.655178 30.039095 336.280404 32.413868 333.405679 32.413868 L 164.046852 32.413868 C 161.109632 32.413868 158.734859 30.039095 158.734859 27.101875 L 158.734859 16.540384 C 158.734859 13.603164 161.109632 11.228391 164.046852 11.228391 Z M 164.046852 11.228391 " transform="matrix(0.062506,0,0,0.062506,-0.00000109958,13.438784)"/>
<path style="fill-rule:nonzero;fill:url(#linear6);stroke-width:3;stroke-linecap:round;stroke-linejoin:round;stroke:rgb(12.941176%,12.941176%,12.941176%);stroke-opacity:1;stroke-miterlimit:4;" d="M 164.046852 53.599345 L 259.287757 53.599345 C 262.224976 53.599345 264.59975 55.974118 264.59975 58.848844 L 264.59975 69.472829 C 264.59975 72.410049 262.224976 74.722328 259.287757 74.722328 L 164.046852 74.722328 C 161.109632 74.722328 158.734859 72.410049 158.734859 69.472829 L 158.734859 58.848844 C 158.734859 55.974118 161.109632 53.599345 164.046852 53.599345 Z M 164.046852 53.599345 " transform="matrix(0.062506,0,0,0.062506,-0.00000109958,13.438784)"/>
<path style="fill-rule:nonzero;fill:url(#linear7);stroke-width:3;stroke-linecap:round;stroke-linejoin:round;stroke:rgb(12.941176%,12.941176%,12.941176%);stroke-opacity:1;stroke-miterlimit:4;" d="M 164.046852 95.907805 L 259.287757 95.907805 C 262.224976 95.907805 264.59975 98.282578 264.59975 101.219797 L 264.59975 111.781289 C 264.59975 114.718508 262.224976 117.093282 259.287757 117.093282 L 164.046852 117.093282 C 161.109632 117.093282 158.734859 114.718508 158.734859 111.781289 L 158.734859 101.219797 C 158.734859 98.282578 161.109632 95.907805 164.046852 95.907805 Z M 164.046852 95.907805 " transform="matrix(0.062506,0,0,0.062506,-0.00000109958,13.438784)"/>
<path style="fill-rule:evenodd;fill:url(#linear8);stroke-width:3;stroke-linecap:round;stroke-linejoin:round;stroke:rgb(12.941176%,12.941176%,12.941176%);stroke-opacity:1;stroke-miterlimit:4;" d="M 285.722715 55.349183 C 283.347942 55.349183 281.348133 57.348992 281.348133 59.723765 L 281.348133 112.593716 C 281.348133 115.9059 284.910292 118.030697 287.847512 116.468346 L 336.280387 90.033371 C 339.342594 88.346032 339.342594 83.97145 336.280387 82.284111 L 287.847512 55.911629 C 287.222572 55.536665 286.472643 55.349183 285.722715 55.349183 Z M 285.722715 55.349183 " transform="matrix(0.062506,0,0,0.062506,0,13.438783)"/>
</g>
</svg>
